X: 40967
T: Trip To Dingle, The
R: polka
M: 2/4
K: Dmajor
|:DE/F/ AA|AB F2-|Fd BA|B/d/B/A/ FD|B,2 A,B,|DE FA|AB FE|D2D2:|
B2 AB|de f2|ED/E/ FE|ED B,D|B2AB|de fa|ab fd|e2ed|
B2 AB|de f2|ED/E/ FE|ED B,A,|B,2 A,B,|DE FA|AB FE|D2D2:|

